X:1
T:A minor Justin Morgan, 1790
T:Isaac Watts, 1719 (Psalm 90)    88. 88.  (L. M.)
T:Amanda Transcribed from The Philadelphia Harmony, 1791.
%%score [ 1 2 3 4 ]
L:1/8
M:3/2
K:C
V:1 treble nm="Treble" snm="Tr."
V:2 treble nm="Counter" snm="C."
V:3 treble-8 nm="Tenor" snm="T."
V:4 bass nm="Bass" snm="B."
V:1
 A4 | c8 B4 | e8 e4 | (c3 d e4) (d2 B2) ||[M:4/4] A8 | c4 c2 c2 | (d4 e2) c2 | A4 A4 | B8 |: %9
w: 1.~Death,|like an|o- ver-|flo- * * wing *|stream|Sweeps us a-|way, * our|life's a|dream,|
 e4 cB A2 | E4 G4 | (d3 e dB) G2 | B8 | B4 A2 c2 | (B3 A G2) A2 | (e>fed c2) B2 | A8 :| %17
w: An emp- * ty|tale, a|mor- * * * ning|flower,|Cut down and|with- * * ered|in~ _ _ _ _ an|hour.|
V:2
 E4 | E8 G4 | (E4 A4) (G2 E2) | (C2 D2 E4) E4 ||[M:4/4] E8 | A4 A2 A2 | (G3 A G2) G2 | A4 A4 | %8
w: 2.~Our|age to|sev- * enty *|years * * is|set;|How short the|time! * * how|frail the|
 G8 |: G4 A2 A2 | G4 E4 | A6 GF | E8 | E4 E2 A2 | (A2 G2 E2) C2 | E6 E2 | E8 :| %17
w: state!|And if to|eigh- ty|we ar- *|rive,|We ra- ther|sigh~ _ _ and|groan than|live.|
V:3
 A4 | e8 d4 | (c3 d e4) (3(c2 B2 A2) | (G3 A E4) G4 ||[M:4/4] A8 | e4 e2 e2 | (g3 a g2) e2 | %7
w: 3.~Teach|us, O|Lord, * * how * *|frail * * is|man;|And kind- ly|length- * * en|
 c4 d4 | e8 |: G4 A2 c2 | B4 (A2 G2) | (A2 c2 dB) G2 | E8 | G4 c2 A2 | (e>f ed e2) dc | B6 ^G2 | %16
w: out our|span,|Till a wise|care of *|pi- * * * e-|ty|Fit us to|die,~ _ _ _ _ and *|dwell with|
 A8 :| %17
w: thee.|
V:4
 A,4 | A,8 G,4 | A,8 A,,4 | C,8 E,4 ||[M:4/4] A,,8 | A,4 A,2 A,2 | (G,3 F, E,2) G,2 | %7
 A,4 (G,2 F,2) | E,8 |: E,4 D,2 C,2 | G,4 (A,2 E,2) | D,6 D,2 | E,8 | E,4 C,2 C,D, | %14
 (E,3 F, G,2) A,2 | E,6 E,2 | A,,8 :| %17

